!!!!SEGMENT: pl-gd--ee-1638--003-029_marenzio-luca--madrigali-a-quatro-voci-la-santa-pale.krn
!!!cenid: 15xx:1003
!!!COM: Marenzio, Luca
!!!COM-rismid: pe30003955
!!!CDT: ~1553-1599/08/22
!!!CNT: Italian
!!!GTL: Madrigali a quatro voci
!!!OTL: La santa Pale
!!!OMV: 029
!!!PDT: 1587
!!!AGN:
!!!SMS-siglum: PL-GD
!!!SMS-shelfmark: Ee 1638
!!!SMS-shelfwork: 003-029 G
!!!SMS-variant:
!!!SMS-altvar:
!!!NIFC-rismid: 990039322
!!!URL-scan: https://repozytorium.nifc.pl/islandora/object/pl-gd%3A57883/datastream/PDF/view
!!!ONB-nifc: UWAGA: zbiór na stronach: Canto: s. 637-653, Alto: s. do 486-501, Tenore: s. do 334-349, Bassus: s. do 182-197. Uwaga: utwory podzielone wg tytułów w spisach treści dostępnych na końcu każdej księgi głosowej.
!!!AIN: 1 alto 1 bass 1 soprn 1 tenor
!!!key: F
**kern	**text	**kern	**text	**kern	**text	**kern	**text
*part4	*part4	*part3	*part3	*part2	*part2	*part1	*part1
*staff4	*staff4	*staff3	*staff3	*staff2	*staff2	*staff1	*staff1
*I"BASSO	*	*I"TENORE	*	*I"ALTO	*	*I"CANTO	*
*I'B	*	*I'T	*	*I'A	*	*I'S	*
*ICvox	*	*ICvox	*	*ICvox	*	*ICvox	*
*Ibass	*	*Itenor	*	*Ialto	*	*Isoprn	*
*clefF4	*	*clefC4	*	*clefC3	*	*clefC1	*
*k[b-]	*	*k[b-]	*	*k[b-]	*	*k[b-]	*
*F:	*	*F:	*	*F:	*	*F:	*
*M4/4	*	*M4/4	*	*M4/4	*	*M4/4	*
*met(C)	*	*met(C)	*	*met(C)	*	*met(C)	*
=1-	=1-	=1-	=1-	=1-	=1-	=1-	=1-
!LO:TX:b:t=LA ſanta Pale.	!	!LO:TX:b:t=LA ſanta Pale.	!	!	!	!	!
!LO:TX:a:t=Terza, & ultima parte.	!	!LO:TX:a:t=Terza, & ultima parte.	!	!LO:TX:a:t=Terza, & ultima parte.	!	!	!
00r	.	00r	.	1f	LA	2r	.
!	!	!	!	!	!	!LO:TX:a:t=Terza, & ultima parte.	!
.	.	.	.	.	.	2f/	LA
=2-	=2-	=2-	=2-	=2-	=2-	=2-	=2-
.	.	.	.	2f\	ſan-	2a\	ſan-
.	.	.	.	2g\	-ta	2b-\	-ta
=3-	=3-	=3-	=3-	=3-	=3-	=3-	=3-
.	.	.	.	1f	Pa-	1cc	Pa-
=4-	=4-	=4-	=4-	=4-	=4-	=4-	=4-
.	.	.	.	2f\	-le	2a\	-le
.	.	.	.	4r	.	4r	.
.	.	.	.	4f\	in-	4a\	in-
=5-	=5-	=5-	=5-	=5-	=5-	=5-	=5-
00r	.	00r	.	4g\	-ten-	4b-\	-ten-
.	.	.	.	4.a\	-ta	4.cc\	-ta
.	.	.	.	8a\	ode	8cc\	ode
.	.	.	.	4g\	il	4b-\	il
=6-	=6-	=6-	=6-	=6-	=6-	=6-	=6-
.	.	.	.	4.f\	mio	4.a\	mio
.	.	.	.	8e\	can-	8g\	can-
.	.	.	.	8f\	.	8a\	.
.	.	.	.	8e\	.	8g\	.
!	!	!	!	!LO:SIC:v:t=custos e	!	!	!
.	.	.	.	4f\	.	4a\	.
!	!	!	!	!LO:LB:g=original	!	!	!
=7-	=7-	=7-	=7-	=7-	=7-	=7-	=7-
!	!	!	!	!	!	!LO:SIC:v:t=custos g	!
.	.	.	.	1e	-to	1g	-to
!	!	!	!	!	!	!LO:LB:g=original	!
=8-	=8-	=8-	=8-	=8-	=8-	=8-	=8-
.	.	.	.	4e\	Et	4g/	Et
.	.	.	.	8e\	de	8g/	de
.	.	.	.	8d\	bei	8f/	bei
.	.	.	.	4e\	ra-	4g/	ra-
.	.	.	.	4f\	-mi	4a\	-mi
=9-	=9-	=9-	=9-	=9-	=9-	=9-	=9-
00r	.	00r	.	4.g\	le	4.b-\	le
.	.	.	.	8g\	mie	8b-\	mie
.	.	.	.	4g\	chio-	4b-\	chio-
.	.	.	.	4f\	-me	4cc\	-me
=10-	=10-	=10-	=10-	=10-	=10-	=10-	=10-
.	.	.	.	2e\	ador-	2g/	ador-
.	.	.	.	2e\	-na	2g/	-na
=11-	=11-	=11-	=11-	=11-	=11-	=11-	=11-
.	.	.	.	2a\	Che	2cc\	Che
.	.	.	.	4a\	neſ-	4cc\	neſ-
.	.	.	.	4a\	-ſun	4cc\	-ſun
=12-	=12-	=12-	=12-	=12-	=12-	=12-	=12-
.	.	.	.	4.a\	al-	4.cc\	al-
.	.	.	.	8g\	-tro	8b-\	-tro
.	.	.	.	4.f\	ſe	4.a\	ſe
.	.	.	.	8e\	ne	8g/	ne
=13-	=13-	=13-	=13-	=13-	=13-	=13-	=13-
0r	.	0r	.	4f\	puo	4a\	puo
.	.	.	.	4d\	dar	4b-\	dar
.	.	.	.	2e\	van-	2g/	van-
=14-	=14-	=14-	=14-	=14-	=14-	=14-	=14-
!	!	!	!	!LO:SIC:v:t=custos f	!	!LO:SIC:v:t=custos cc	!
.	.	.	.	1f	-to	1f	-to
!	!	!	!	!LO:LB:g=original	!	!LO:LB:g=original	!
=15-	=15-	=15-	=15-	=15-	=15-	=15-	=15-
1F	E'l	2r	.	00r	.	00r	.
.	.	2F/	E'l	.	.	.	.
=16-	=16-	=16-	=16-	=16-	=16-	=16-	=16-
2.F\	ſe-	2.A/	ſe-	.	.	.	.
4F\	-mi-	4A/	-mi-	.	.	.	.
=17-	=17-	=17-	=17-	=17-	=17-	=17-	=17-
2F\	-ca-	2A/	-ca-	.	.	.	.
2E\	-pro	2G/	-pro	.	.	.	.
=18-	=18-	=18-	=18-	=18-	=18-	=18-	=18-
1F	Pan	2F/	Pan	.	.	.	.
.	.	1c\	al-	.	.	.	.
=19-	=19-	=19-	=19-	=19-	=19-	=19-	=19-
2F\	al-	.	.	00r	.	00r	.
4.E\	-za	4.c\	-za	.	.	.	.
!	!	!LO:N:acc=#	!	!	!	!	!
8D/	le	8Bn\	le	.	.	.	.
=20-	=20-	=20-	=20-	=20-	=20-	=20-	=20-
2C/	cor-	2c\	cor-	.	.	.	.
!LO:SIC:v:t=custos C	!	!LO:SIC:v:t=custos G	!	!	!	!	!
2C/	-na	2c\	-na	.	.	.	.
!LO:LB:g=original	!	!LO:LB:g=original	!	!	!	!	!
=21-	=21-	=21-	=21-	=21-	=21-	=21-	=21-
4C/	A	4G/	A	.	.	.	.
8C/	la	8G/	la	.	.	.	.
8D/	ſam-	8F/	ſam-	.	.	.	.
4E\	-po-	4G/	-po-	.	.	.	.
4F\	-gna	4A/	-gna	.	.	.	.
=22-	=22-	=22-	=22-	=22-	=22-	=22-	=22-
4.E\	mia	4.G/	mia	.	.	.	.
8F\	ſo-	8c\	ſo-	.	.	.	.
4G\	-no-	4B-y\	-no-	.	.	.	.
4F\	-ra e	4A/	-ra e	.	.	.	.
=23-	=23-	=23-	=23-	=23-	=23-	=23-	=23-
2C/	bel-	2G/	bel-	00r	.	00r	.
2C/	-la	2G/	-la	.	.	.	.
=24-	=24-	=24-	=24-	=24-	=24-	=24-	=24-
2F\	Et	2A/	Et	.	.	.	.
4A\	cor-	4c\	co-	.	.	.	.
4G\	-re e	4B-\	-re &	.	.	.	.
=25-	=25-	=25-	=25-	=25-	=25-	=25-	=25-
4.F\	ſal-	4.A/	ſal-	.	.	.	.
8E\	-ta e	8G/	-ta &	.	.	.	.
4.D/	fug-	4.F/	fug-	.	.	.	.
8E\	-ge e	8G/	-ge &	.	.	.	.
=26-	=26-	=26-	=26-	=26-	=26-	=26-	=26-
4.F\	poi	4.A/	poi	.	.	.	.
8D/	ri-	8B-\	ri-	.	.	.	.
2E\	-tor-	2G/	-tor-	.	.	.	.
=27-	=27-	=27-	=27-	=27-	=27-	=27-	=27-
!LO:SIC:v:t=custos F	!	!LO:SIC:v:t=custos c	!	!	!	!	!
1F	-na	1F	-na	1r	.	1r	.
!LO:LB:g=original	!	!LO:LB:g=original	!	!	!	!	!
=28-	=28-	=28-	=28-	=28-	=28-	=28-	=28-
1r	.	1r	.	1f	Quan-	1cc	Quan-
=29-	=29-	=29-	=29-	=29-	=29-	=29-	=29-
00r	.	00r	.	4.f\	-do	4.a\	-do
.	.	.	.	8e\	tal-	8g/	tal-
.	.	.	.	2f\	-hora	2f/	-hora
=30-	=30-	=30-	=30-	=30-	=30-	=30-	=30-
.	.	.	.	2f\	à	2f/	à
.	.	.	.	2.a\	la	2.cc\	la
=31-	=31-	=31-	=31-	=31-	=31-	=31-	=31-
.	.	.	.	.	.	.	.
.	.	.	.	4f\	ſtag-	4cc\	ſtag-
.	.	.	.	4.f\	-gion	4.cc\	-gion
!	!	!	!	!	!	!LO:N:acc=#	!
.	.	.	.	8d\	no-	8bn\	no-
=32-	=32-	=32-	=32-	=32-	=32-	=32-	=32-
.	.	.	.	2c/	-vel-	2cc\	-vel-
.	.	.	.	2c/	-la	2g/	-la
=33-	=33-	=33-	=33-	=33-	=33-	=33-	=33-
00r	.	00r	.	2f\	Mun-	2a\	Mun-
.	.	.	.	4e\	-go	4g/	-go
.	.	.	.	4d\	le	4f/	le
=34-	=34-	=34-	=34-	=34-	=34-	=34-	=34-
.	.	.	.	4e\	ca-	4g/	ca-
.	.	.	.	4f\	-pre	4a\	-pre
.	.	.	.	2.g\	mie	2.b-y\	mie
=35-	=35-	=35-	=35-	=35-	=35-	=35-	=35-
.	.	.	.	.	.	.	.
.	.	.	.	4f\	mi	4a\	mi
.	.	.	.	4.a\	ſcher-	4.cc\	ſcher-
!	!	!	!	!LO:SIC:v:t=custos f	!	!LO:SIC:v:t=custos a	!
.	.	.	.	8g\	-ne	8b-\	-ne
!	!	!	!	!LO:LB:g=original	!	!LO:LB:g=original	!
=36-	=36-	=36-	=36-	=36-	=36-	=36-	=36-
.	.	.	.	4.f\	&	4.a\	&
.	.	.	.	8e\	ri-	8g\	ri-
.	.	.	.	8d\	.	8a\	.
.	.	.	.	8e\	.	8g\	.
.	.	.	.	8f\	.	8a\	.
.	.	.	.	8d\	.	8b-\	.
=37-	=37-	=37-	=37-	=37-	=37-	=37-	=37-
00r	.	00r	.	2e\	.	2g/	.
.	.	.	.	2c/	de	2g/	de
=38-	=38-	=38-	=38-	=38-	=38-	=38-	=38-
.	.	.	.	2f\	La	2a\	La
.	.	.	.	4a\	mia	4cc\	mia
.	.	.	.	4g\	ſo-	4b-\	ſo-
=39-	=39-	=39-	=39-	=39-	=39-	=39-	=39-
.	.	.	.	4.f\	-aue	4.a\	-aue
.	.	.	.	8a\	e	8cc\	e
.	.	.	.	4g\	dol-	4b-\	dol-
.	.	.	.	4f\	-ce	4a\	-ce
=40-	=40-	=40-	=40-	=40-	=40-	=40-	=40-
.	.	.	.	4.e\	paſ-	4.g/	paſ-
.	.	.	.	8d\	-to-	8f/	-to-
.	.	.	.	2e\	-rel-	2g/	-rel-
=41-	=41-	=41-	=41-	=41-	=41-	=41-	=41-
!	!	!	!	!LO:SIC:v:t=custos f	!	!	!
1r	.	1r	.	1f	-la	1f	-la
!	!	!	!	!LO:LB:g=original	!	!	!
=42-	=42-	=42-	=42-	=42-	=42-	=42-	=42-
1F	-Thir-	1c	-Thir-	0r	.	0r	.
=43-	=43-	=43-	=43-	=43-	=43-	=43-	=43-
2F\	-re-	2A/	-re-	.	.	.	.
2G\	-na	2B-\	-na	.	.	.	.
=44-	=44-	=44-	=44-	=44-	=44-	=44-	=44-
2.A\	mia	2.c\	mia	00r	.	00r	.
4G\	col	4B-\	col	.	.	.	.
=45-	=45-	=45-	=45-	=45-	=45-	=45-	=45-
4F\	ſoſ-	4A/	ſoſ-	.	.	.	.
4E\	-pi-	4G/	-pi-	.	.	.	.
2.F\	-rar	2.A/	-rar	.	.	.	.
=46-	=46-	=46-	=46-	=46-	=46-	=46-	=46-
.	.	.	.	.	.	.	.
4E\	m'uc-	4G/	m'uc-	.	.	.	.
2F\	-ci-	2A/	-ci-	.	.	.	.
=47-	=47-	=47-	=47-	=47-	=47-	=47-	=47-
1C	-de	1G	-de	.	.	.	.
=48-	=48-	=48-	=48-	=48-	=48-	=48-	=48-
2E\	Quan-	2G/	Quã(n)-	00r	.	00r	.
2E\	-do	2G/	-do	.	.	.	.
=49-	=49-	=49-	=49-	=49-	=49-	=49-	=49-
4F\	par	4A/	par	.	.	.	.
2G\	che	2B-\	che	.	.	.	.
4F\	ver	4A/	cer	.	.	.	.
=50-	=50-	=50-	=50-	=50-	=50-	=50-	=50-
4.E\	me	4.G/	me	.	.	.	.
8F\	cõ[n]	8A/	cõ(n)	.	.	.	.
4G\	gli	4B-\	gli	.	.	.	.
!LO:SIC:v:t=custos E	!	!LO:SIC:v:t=custos G	!	!	!	!	!
4F\	occhi	4c\	occhi	.	.	.	.
!LO:LB:g=original	!	!LO:LB:g=original	!	!	!	!	!
=51-	=51-	=51-	=51-	=51-	=51-	=51-	=51-
2E\	di-	2G/	di-	.	.	.	.
2C/	-ca	2G/	-ca	.	.	.	.
=52-	=52-	=52-	=52-	=52-	=52-	=52-	=52-
2F\	Chi	2A/	Chi	00r	.	00r	.
4.A\	dal	4.c\	dal	.	.	.	.
8G\	mio	8B-\	mio	.	.	.	.
=53-	=53-	=53-	=53-	=53-	=53-	=53-	=53-
4F\	fido	4A/	fido	.	.	.	.
4E\	ama-	4G/	amã-	.	.	.	.
4.D/	-te	4.A/	-te	.	.	.	.
8C/	hor	8c\	hor	.	.	.	.
=54-	=54-	=54-	=54-	=54-	=54-	=54-	=54-
4D/	mi	4B-\	mi	.	.	.	.
4F\	di-	4A/	di-	.	.	.	.
2E\	-vi-	2G/	-ui-	.	.	.	.
=55-	=55-	=55-	=55-	=55-	=55-	=55-	=55-
1F	-de	1F	-de	.	.	.	.
=56-	=56-	=56-	=56-	=56-	=56-	=56-	=56-
0r	.	0r	.	1f	Vn	1cc	Vn
=57-	=57-	=57-	=57-	=57-	=57-	=57-	=57-
.	.	.	.	2f\	bel	2a\	bel
!	!	!	!	!	!	!LO:SIC:v:t=custos cc	!
.	.	.	.	2g\	co-	2b-\	co-
!	!	!	!	!	!	!LO:LB:g=original	!
=58-	=58-	=58-	=58-	=58-	=58-	=58-	=58-
1r	.	1r	.	1f	-lom-	1cc	-lom-
=59-	=59-	=59-	=59-	=59-	=59-	=59-	=59-
2r	.	2r	.	1f	-bo	1a	-bo
2F\	Et	2c\	Et	.	.	.	.
=60-	=60-	=60-	=60-	=60-	=60-	=60-	=60-
2F\	io	2A/	io	0r	.	0r	.
2G\	nel	2B-\	nel	.	.	.	.
=61-	=61-	=61-	=61-	=61-	=61-	=61-	=61-
1F	bo-	1c	bo-	.	.	.	.
=62-	=62-	=62-	=62-	=62-	=62-	=62-	=62-
!	!	!	!	!	!	!	!
2F\	-ſco	2A/	-ſco	4r	.	4r	.
.	.	.	.	4c/	in	4cc\	in
!	!	!	!	!	!	!	!
2r	.	2r	.	4.f\	vna	4.a\	vna
.	.	.	.	8f\	quer-	8a\	quer-
=63-	=63-	=63-	=63-	=63-	=63-	=63-	=63-
!LO:SIC:v:t=custos C 	!	!LO:SIC:v:t=custos c	!	!	!	!	!
1r	.	1r	.	4e\	-cia	4g/	-cia
.	.	.	.	4e\	an-	4cc\	an-
!	!	!	!	!	!	!LO:N:acc=#	!
.	.	.	.	2d\	-ti-	2bn\	-ti-
!LO:LB:g=original	!	!LO:LB:g=original	!	!	!	!	!
=64-	=64-	=64-	=64-	=64-	=64-	=64-	=64-
4r	.	4r	.	2c/	-ca	2cc\	-ca
4C/	un	4c\	un	.	.	.	.
4.F\	bel	4.A/	bel	2r	.	2r	.
8F\	gio-	8A/	gio-	.	.	.	.
=65-	=65-	=65-	=65-	=65-	=65-	=65-	=65-
4E\	-ven-	4G/	-ven-	1r	.	1r	.
4E\	-co	4c\	-co	.	.	.	.
!	!	!LO:N:acc=#	!	!	!	!	!
2D/	ader-	2Bn\	ader-	.	.	.	.
=66-	=66-	=66-	=66-	=66-	=66-	=66-	=66-
1C	-bo	1c	-bo	2r	.	2r	.
.	.	.	.	2e\	Vi-	2g/	Vi-
=67-	=67-	=67-	=67-	=67-	=67-	=67-	=67-
1r	.	1r	.	4e\	-di	4g/	-di
.	.	.	.	4d\	an-	4f/	an-
.	.	.	.	4.e\	-ni-	4.g/	-ni-
.	.	.	.	8d\	-dar	8f/	-dar
=68-	=68-	=68-	=68-	=68-	=68-	=68-	=68-
1r	.	1r	.	4e\	poc'	4g/	poi
.	.	.	.	4f\	anzi	4a\	anzi
.	.	.	.	4g\	(il)	4b-y\	il
!	!	!	!	!LO:SIC:v:t=custos e	!	!	!
.	.	.	.	4f\	qual	4cc\	qual
!	!	!	!	!LO:LB:g=original	!	!	!
=69-	=69-	=69-	=69-	=69-	=69-	=69-	=69-
2r	.	2r	.	2e\	riſer-	2g/	riſer-
!	!	!	!	!	!	!LO:SIC:v:t=custos cc	!
4r	.	4r	.	2c/	bo	2g/	bo
4C/	Per	4G/	Per	.	.	.	.
!	!	!	!	!	!	!LO:LB:g=original	!
=70-	=70-	=70-	=70-	=70-	=70-	=70-	=70-
4E\	la	4G/	la	0r	.	0r	.
4D/	mia	4F/	mia	.	.	.	.
4.E\	dõ[n]na	4.G/	dõ(n)na	.	.	.	.
8D/	il	8F/	il	.	.	.	.
=71-	=71-	=71-	=71-	=71-	=71-	=71-	=71-
4E\	qual	4G/	qual	.	.	.	.
4F\	fra	4A/	fra	.	.	.	.
4G\	tut-	4B-y\	tut-	.	.	.	.
4F\	-ti i	4c\	-ti i	.	.	.	.
=72-	=72-	=72-	=72-	=72-	=72-	=72-	=72-
2E\	To-	2G/	To-	1r	.	1r	.
!LO:SIC:v:t=custos F	!	!	!	!	!	!	!
2C/	-ri	2G/	-ri	.	.	.	.
!LO:LB:g=original	!	!	!	!	!	!	!
=73-	=73-	=73-	=73-	=73-	=73-	=73-	=73-
1r	.	1r	.	2f\	Per	2cc\	Per
.	.	.	.	4.a\	la	4.cc\	la
.	.	.	.	8g\	cru-	8b-\	cru-
=74-	=74-	=74-	=74-	=74-	=74-	=74-	=74-
!	!	!LO:SIC:v:t=custos c	!	!	!	!	!
0r	.	0r	.	4f\	-del	4a\	-del
.	.	.	.	4f\	&	4a\	&
.	.	.	.	4.B-/	aſ-	4.dd\	aſ-
.	.	.	.	8c/	-pra	8cc\	-pra
!	!	!LO:LB:g=original	!	!	!	!	!
=75-	=75-	=75-	=75-	=75-	=75-	=75-	=75-
.	.	.	.	4d\	mia	4b-\	mia
.	.	.	.	4f\	ne-	4a\	ne-
.	.	.	.	2e\	-mi-	2g/	-mi-
=76-	=76-	=76-	=76-	=76-	=76-	=76-	=76-
4r	.	4r	.	2f\	-ca	2f/	-ca
4F\	In-	4c\	In-	.	.	.	.
4.A\	-ce-	4.c\	-ce-	2r	.	2r	.
8G\	-de	8B-\	-de	.	.	.	.
=77-	=77-	=77-	=77-	=77-	=77-	=77-	=77-
4F\	con	4A/	con	1r	.	1r	.
4F\	le	4A/	le	.	.	.	.
4.BB-/	cor-	4.d\	cor-	.	.	.	.
8C/	-na	8c\	-na	.	.	.	.
=78-	=78-	=78-	=78-	=78-	=78-	=78-	=78-
4D/	al-	4B-\	al-	0r	.	0r	.
4F\	-to e	4A/	-to e	.	.	.	.
2E\	ſuper-	2G/	ſuper-	.	.	.	.
=79-	=79-	=79-	=79-	=79-	=79-	=79-	=79-
1F	-bo	1F	-bo	.	.	.	.
=80-	=80-	=80-	=80-	=80-	=80-	=80-	=80-
*M3/2	*	*M3/2	*	*M3/2	*	*M3/2	*
*met(3)	*	*met(3)	*	*met(3)	*	*met(3)	*
2.F\	Fre-	2.c\	Fre-	2.f\	Fre-	2.a\	Fre-
4G\	-ſche	4B-\	-ſche	4d\	-ſche	4b-\	-ſche
!	!	!	!	!LO:SIC:v:t=custos f	!	!	!
2F\	ghir-	2A/	ghir-	2f\	ghir-	2cc\	ghir-
!	!	!	!	!LO:LB:g=original	!	!	!
=81-	=81-	=81-	=81-	=81-	=81-	=81-	=81-
2.BB-/	-lan-	2.B-\	-lan-	2.f\	-lan-	2.dd\	-lan-
4AA/	-de	4c\	-de	4f\	-de	4cc\	-de
2.BB-/	di	2.d\	di	2.f\	di	2.b-\	di
=82-	=82-	=82-	=82-	=82-	=82-	=82-	=82-
.	.	.	.	.	.	.	.
4AA/	-nouel-	4c\	-nouel-	4f\	-nouel-	4cc\	-nouel-
2GG/	-li	2d\	-li	2g\	-li	2b-\	-li
!LO:SIC:v:t=custos FF	!	!LO:SIC:v:t=custos c	!	!	!	!LO:SIC:v:t=custos a	!
2C/	fio-	2c\	fio-	2e\	fio-	2g/	fio-
!LO:LB:g=original	!	!LO:LB:g=original	!	!	!	!LO:LB:g=original	!
=83-	=83-	=83-	=83-	=83-	=83-	=83-	=83-
1FF	-ri	1c	-ri	1f	-ri	1a	-ri
2FF/	I	2c\	I	2f\	I	2a\	I
=84-	=84-	=84-	=84-	=84-	=84-	=84-	=84-
2F\	voſ-	2c\	voſ-	2f\	voſ-	2a\	voſ-
2F\	-tri	2c\	-tri	2f\	-tri	2a\	-tri
!	!	!LO:N:acc=#	!	!	!	!	!
2G\	al-	2Bn\	al-	2d\	al-	2g/	al-
=85-	=85-	=85-	=85-	=85-	=85-	=85-	=85-
2.C/	-ta-	2.c\	-ta-	2.e\	-ta-	2.g/	-ta-
4C/	-ti o	4c\	-ti o	4e\	-ti o	4g/	-ti o
2.F\	ſa-	2.c\	ſa-	2.f\	ſa-	2.a\	ſa-
=86-	=86-	=86-	=86-	=86-	=86-	=86-	=86-
.	.	.	.	.	.	.	.
4A\	-cre	4c\	-cre	4e\	-cre	4cc\	-cre
!	!	!	!	!	!	!LO:N:acc=#	!
2.G\	Ninfe	2.d\	Ninfe	2.g\	Ninfe	2.bn\	Ninfe
4G\	hau	4d\	hau	4g\	hau	4b\	hau
=87-	=87-	=87-	=87-	=87-	=87-	=87-	=87-
*M4/4	*	*M4/4	*	*M4/4	*	*M4/4	*
*met(C)	*	*met(C)	*	*met(C)	*	*met(C)	*
2C/	ran-	2c\	ran-	2e\	ran-	2cc\	ran-
!	!	!	!	!LO:SIC:v:t=custos f	!	!	!
2C/	-no	2c\	-no	2e\	-no	2g/	-no
!	!	!	!	!LO:LB:g=original	!	!	!
=88-	=88-	=88-	=88-	=88-	=88-	=88-	=88-
4F\	Se	4c\	Se	4f\	Se	4a\	Se
4F\	pie-	4c\	pie-	4f\	pie-	4a\	pie-
1E-X\	-to-	1e-X\	-to-	1g\	-to-	1b-y\	-to-
=89-	=89-	=89-	=89-	=89-	=89-	=89-	=89-
.	.	.	.	.	.	.	.
4Eny\	-ſe	4eny\	-ſe	4g\	-ſe	4b-\	-ſe
4F\	ſa-	4c\	ſa-	4f\	ſa-	4a\	ſa-
=90-	=90-	=90-	=90-	=90-	=90-	=90-	=90-
4.C/	-rete	4.c\	-rete	4.e\	-rete	4.g/	-rete
!LO:SIC:v:t=custos BB-	!	!	!	!	!	!	!
8AA/	a	8c\	ai	8f\	ai	8a\	ai
!LO:LB:g=original	!	!	!	!	!	!	!
4BB-/	noſ-	4B-y\	noſ-	4d\	noſ-	4f/	noſ-
!	!	!LO:SIC:v:t=custos G	!	!	!	!LO:SIC:v:t=custos e	!
4FF/	-tri a-	4A/	-tri a-	4c/	-tri a-	4f/	-tri a-
!	!	!LO:LB:g=original	!	!	!	!LO:LB:g=original	!
=91-	=91-	=91-	=91-	=91-	=91-	=91-	=91-
2C/	-mo-	2G/	-mo-	2c/	-mo-	2e/	-mo-
2FF/	-ri	2F/	-ri	2c/	-ri	2f/	-ri
=92-	=92-	=92-	=92-	=92-	=92-	=92-	=92-
4F\	Se	4c\	Se	4f\	Se	4a\	Se
4F\	ple-	4c\	ple-	4f\	ple-	4a\	ple-
1E-X\	-to-	1e-X\	-to-	1g\	-to-	1b-\	-to-
=93-	=93-	=93-	=93-	=93-	=93-	=93-	=93-
.	.	.	.	.	.	.	.
4Eny\	-ſe	4eny\	-ſe	4g\	-ſe	4b-\	-ſe
4F\	ſa-	4c\	ſa-	4f\	ſa-	4a\	ſa-
=94-	=94-	=94-	=94-	=94-	=94-	=94-	=94-
4.C/	-re-	4.c\	-re-	4.e\	-re-	4.g/	-ra-
8AA/	-te	8c\	-te	8f\	-te	8a\	-te
4BB-/	a i	4B-\	a i	4d\	a i	4f/	a i
4FF/	noſtri	4A/	noſtri	4c/	noſtri	2f/	noſ-
=95-	=95-	=95-	=95-	=95-	=95-	=95-	=95-
1C	amo-	1G	amo-	1c	amo-	.	.
.	.	.	.	.	.	8e/	-tri
.	.	.	.	.	.	8d/	a
.	.	.	.	.	.	2e/	mo-
=96-	=96-	=96-	=96-	=96-	=96-	=96-	=96-
00FF	-ri.	00F	-ri.	00c	-ri.	00f	-ri.
=97-	=97-	=97-	=97-	=97-	=97-	=97-	=97-
.	.	.	.	.	.	.	.
=98-	=98-	=98-	=98-	=98-	=98-	=98-	=98-
.	.	.	.	.	.	.	.
=99-	=99-	=99-	=99-	=99-	=99-	=99-	=99-
.	.	.	.	.	.	.	.
==	==	==	==	==	==	==	==
*-	*-	*-	*-	*-	*-	*-	*-
!!!system-decoration: [(s1,s2,s3,s4)]
!!!ENC: Marta Opryszak
!!!END: 2022-06-28
!!!ENC: Jan Barakat
!!!END: 2022-07-15
